images/illustrations/common-questions.svg

<?xml version="1.0" encoding="UTF-8" standalone="no"?>
<svg width="371px" height="368px" viewBox="0 0 371 368" version="1.1" xmlns="http://www.w3.org/2000/svg" xmlns:xlink="http://www.w3.org/1999/xlink">
    <!-- Generator: Sketch 3.7 (28169) - http://www.bohemiancoding.com/sketch -->
    <title>Group 25</title>
    <desc>Created with Sketch.</desc>
    <defs>
        <filter x="-50%" y="-50%" width="200%" height="200%" filterUnits="objectBoundingBox" id="filter-1">
            <feOffset dx="0" dy="0" in="SourceAlpha" result="shadowOffsetOuter1"></feOffset>
            <feGaussianBlur stdDeviation="20" in="shadowOffsetOuter1" result="shadowBlurOuter1"></feGaussianBlur>
            <feColorMatrix values="0 0 0 0 0   0 0 0 0 0   0 0 0 0 0  0 0 0 0.147956295 0" type="matrix" in="shadowBlurOuter1" result="shadowMatrixOuter1"></feColorMatrix>
            <feMerge>
                <feMergeNode in="shadowMatrixOuter1"></feMergeNode>
                <feMergeNode in="SourceGraphic"></feMergeNode>
            </feMerge>
        </filter>
        <path d="M80.6569003,72.6917296 C98.8313425,54.5172874 116.807097,31.8323028 116.807097,31.8323028 C140.88573,3.02874568 179.938179,3.03541764 204.221965,31.6916684 C204.221965,31.6916684 225.042203,57.5662514 244.727849,77.2518982 C263.809742,96.333791 288.443761,116.045576 288.443761,116.045576 C317.187904,140.190135 317.275227,179.460398 288.789546,203.934976 C288.789546,203.934976 268.807703,220.170308 252.210991,236.767021 C230.080921,258.89709 205.244054,288.389014 205.244054,288.389014 C180.584866,316.704181 141.130857,316.256896 116.917216,287.54675 C116.917216,287.54675 98.0505415,263.86354 79.4112856,245.224284 C59.2830019,225.096 32.4459411,203.415132 32.4459411,203.415132 C3.7626927,179.202256 3.82853125,139.994666 32.4341233,115.668468 C32.4341233,115.668468 60.10456,93.2440698 80.6569003,72.6917296 Z" id="path-2"></path>
        <mask id="mask-3" maskContentUnits="userSpaceOnUse" maskUnits="objectBoundingBox" x="0" y="0" width="319.733151" height="319.412447" fill="white">
            <use xlink:href="#path-2"></use>
        </mask>
        <path d="M109.431818,218.63354 C169.869343,218.63354 218.863636,169.690755 218.863636,109.31677 C218.863636,48.9427851 169.869343,0 109.431818,0 C48.9942939,0 0,48.9427851 0,109.31677 C0,169.690755 48.9942939,218.63354 109.431818,218.63354 Z M109.76343,170.269151 C143.278784,170.269151 170.448347,143.128152 170.448347,109.648033 C170.448347,76.1679141 143.278784,49.0269151 109.76343,49.0269151 C76.2480754,49.0269151 49.0785124,76.1679141 49.0785124,109.648033 C49.0785124,143.128152 76.2480754,170.269151 109.76343,170.269151 Z" id="path-4"></path>
        <mask id="mask-5" maskContentUnits="userSpaceOnUse" maskUnits="objectBoundingBox" x="0" y="0" width="218.863636" height="218.63354" fill="white">
            <use xlink:href="#path-4"></use>
        </mask>
        <ellipse id="path-6" cx="80.9132231" cy="76.8530021" rx="7.29545455" ry="7.28778468"></ellipse>
        <mask id="mask-7" maskContentUnits="userSpaceOnUse" maskUnits="objectBoundingBox" x="0" y="0" width="14.5909091" height="14.5755694" fill="white">
            <use xlink:href="#path-6"></use>
        </mask>
        <ellipse id="path-8" cx="80.9132231" cy="242.112713" rx="7.29545455" ry="7.28778468"></ellipse>
        <mask id="mask-9" maskContentUnits="userSpaceOnUse" maskUnits="objectBoundingBox" x="0" y="0" width="14.5909091" height="14.5755694" fill="white">
            <use xlink:href="#path-8"></use>
        </mask>
        <ellipse id="path-10" cx="239.423554" cy="76.8530021" rx="7.29545455" ry="7.28778468"></ellipse>
        <mask id="mask-11" maskContentUnits="userSpaceOnUse" maskUnits="objectBoundingBox" x="0" y="0" width="14.5909091" height="14.5755694" fill="white">
            <use xlink:href="#path-10"></use>
        </mask>
        <ellipse id="path-12" cx="239.423554" cy="242.112713" rx="7.29545455" ry="7.28778468"></ellipse>
        <mask id="mask-13" maskContentUnits="userSpaceOnUse" maskUnits="objectBoundingBox" x="0" y="0" width="14.5909091" height="14.5755694" fill="white">
            <use xlink:href="#path-12"></use>
        </mask>
    </defs>
    <g id="Desktop-design" stroke="none" stroke-width="1" fill="none" fill-rule="evenodd">
        <g id="Help-page" transform="translate(-286.000000, -1817.000000)">
            <g id="Group-22" filter="url(#filter-1)" transform="translate(99.000000, 30.000000)">
                <g id="Group-25" transform="translate(212.000000, 1811.000000)">
                    <use id="Rectangle-586" stroke="#373D44" mask="url(#mask-3)" stroke-width="8" opacity="0.2" xlink:href="#path-2"></use>
                    <g id="Group-24" transform="translate(51.068182, 50.351967)">
                        <path d="M109.431818,218.63354 C169.869343,218.63354 218.863636,169.690755 218.863636,109.31677 C218.863636,48.9427851 169.869343,0 109.431818,0 C48.9942939,0 0,48.9427851 0,109.31677 C0,169.690755 48.9942939,218.63354 109.431818,218.63354 Z M109.76343,170.269151 C143.278784,170.269151 170.448347,143.128152 170.448347,109.648033 C170.448347,76.1679141 143.278784,49.0269151 109.76343,49.0269151 C76.2480754,49.0269151 49.0785124,76.1679141 49.0785124,109.648033 C49.0785124,143.128152 76.2480754,170.269151 109.76343,170.269151 Z" id="Oval-149" fill="#FFFFFF"></path>
                        <path d="M166.577594,88.2975018 C183.213254,85.9619568 200.207089,83.0279256 214.958742,80.2709955 C217.504149,89.5201395 218.863636,99.2598592 218.863636,109.31677 C218.863636,119.378375 217.50288,129.122492 214.955178,138.375494 C200.266546,135.632878 183.358928,132.713722 166.806035,130.382058 C169.162803,123.913387 170.448347,116.93068 170.448347,109.648033 C170.448347,102.133436 169.07961,94.9381882 166.577594,88.2975018 Z M53.2787921,87.4426915 C36.1253882,85.1126105 18.9193413,82.3305221 4.0496038,79.750248 C1.41104581,89.1543074 0,99.0709283 0,109.31677 C0,119.55843 1.40989426,129.471138 4.04637378,138.871778 C18.840612,136.302231 35.9509003,133.533602 53.0298168,131.211141 C50.4766419,124.511532 49.0785124,117.242886 49.0785124,109.648033 C49.0785124,101.809831 50.5676733,94.3190744 53.2787882,87.4426909 Z" id="Oval-149" fill="#49B9E8"></path>
                        <path d="M87.1211492,165.908813 C84.8059464,182.856328 82.0591312,199.820307 79.511149,214.497212 C89.0209458,217.191528 99.0578047,218.63354 109.431818,218.63354 C119.571971,218.63354 129.389998,217.25581 138.708549,214.677514 C136.174942,200.106118 133.443009,183.26228 131.133321,166.403635 C124.48651,168.902279 117.284763,170.269151 109.76343,170.269151 C101.759556,170.269151 94.1175913,168.721266 87.1211492,165.908813 Z M88.2362911,52.9517912 C85.9023723,36.1501653 82.9390168,18.9231457 80.1477508,3.95805671 C89.4684849,1.37845387 99.2890046,0 109.431818,0 C119.350725,0 128.961411,1.31826581 138.09788,3.78897744 C135.324211,18.6630919 132.376104,35.782982 130.041617,52.4940087 C123.700538,50.2488523 116.874834,49.0269151 109.76343,49.0269151 C102.182746,49.0269151 94.9267113,50.4154442 88.2362911,52.9517912 Z" id="Oval-149" fill="#49B9E8"></path>
                        <use id="Oval-149" stroke="#373D44" mask="url(#mask-5)" stroke-width="8" fill-opacity="0" fill="#B8C0C9" xlink:href="#path-4"></use>
                    </g>
                    <use id="Oval-155" stroke="#373D44" mask="url(#mask-7)" stroke-width="8" fill="#FFFFFF" xlink:href="#path-6"></use>
                    <use id="Oval-155-Copy-2" stroke="#373D44" mask="url(#mask-9)" stroke-width="8" fill="#FFFFFF" xlink:href="#path-8"></use>
                    <use id="Oval-155-Copy" stroke="#373D44" mask="url(#mask-11)" stroke-width="8" fill="#FFFFFF" xlink:href="#path-10"></use>
                    <use id="Oval-155-Copy-3" stroke="#373D44" mask="url(#mask-13)" stroke-width="8" fill="#FFFFFF" xlink:href="#path-12"></use>
                </g>
            </g>
        </g>
    </g>
</svg>

<svg width="371" height="368" viewBox="0 0 371 368" xmlns="http://www.w3.org/2000/svg" xmlns:xlink="http://www.w3.org/1999/xlink"><title>Group 25</title><desc>Created with Sketch.</desc><defs><filter x="-50%" y="-50%" width="200%" height="200%" filterUnits="objectBoundingBox" id="g"><feOffset in="SourceAlpha" result="shadowOffsetOuter1"/><feGaussianBlur stdDeviation="20" in="shadowOffsetOuter1" result="shadowBlurOuter1"/><feColorMatrix values="0 0 0 0 0 0 0 0 0 0 0 0 0 0 0 0 0 0 0.147956295 0" in="shadowBlurOuter1" result="shadowMatrixOuter1"/><feMerge><feMergeNode in="shadowMatrixOuter1"/><feMergeNode in="SourceGraphic"/></feMerge></filter><path d="M80.657 72.692c18.174-18.174 36.15-40.859 36.15-40.859 24.079-28.804 63.131-28.797 87.415-.141 0 0 20.82 25.875 40.506 45.56 19.082 19.082 43.716 38.794 43.716 38.794 28.744 24.145 28.831 63.415.346 87.889 0 0-19.982 16.235-36.579 32.832-22.13 22.13-46.967 51.622-46.967 51.622-24.659 28.315-64.113 27.868-88.327-.842 0 0-18.867-23.683-37.506-42.322-20.128-20.128-46.965-41.809-46.965-41.809-28.683-24.213-28.617-63.42-.012-87.747 0 0 27.67-22.424 48.223-42.977z" id="a"/><mask id="h" x="0" y="0" width="319.733" height="319.412"><use xlink:href="#a"/></mask><path d="M109.432 218.634c60.438 0 109.432-48.943 109.432-109.317 0-60.374-48.994-109.317-109.432-109.317s-109.432 48.943-109.432 109.317c0 60.374 48.994 109.317 109.432 109.317zm.332-48.364c33.515 0 60.685-27.141 60.685-60.621 0-33.48-27.17-60.621-60.685-60.621s-60.685 27.141-60.685 60.621c0 33.48 27.17 60.621 60.685 60.621z" id="b"/><mask id="i" x="0" y="0" width="218.864" height="218.634"><use xlink:href="#b"/></mask><ellipse id="c" cx="80.913" cy="76.853" rx="7.295" ry="7.288"/><mask id="j" x="0" y="0" width="14.591" height="14.576"><use xlink:href="#c"/></mask><ellipse id="d" cx="80.913" cy="242.113" rx="7.295" ry="7.288"/><mask id="k" x="0" y="0" width="14.591" height="14.576"><use xlink:href="#d"/></mask><ellipse id="e" cx="239.424" cy="76.853" rx="7.295" ry="7.288"/><mask id="l" x="0" y="0" width="14.591" height="14.576"><use xlink:href="#e"/></mask><ellipse id="f" cx="239.424" cy="242.113" rx="7.295" ry="7.288"/><mask id="m" x="0" y="0" width="14.591" height="14.576"><use xlink:href="#f"/></mask></defs><g transform="translate(25 24)" filter="url(#g)" fill="none"><use stroke="#373D44" mask="url(#h)" stroke-width="8" opacity=".2" xlink:href="#a"/><g transform="translate(51.068 50.352)"><path d="M109.432 218.634c60.438 0 109.432-48.943 109.432-109.317 0-60.374-48.994-109.317-109.432-109.317s-109.432 48.943-109.432 109.317c0 60.374 48.994 109.317 109.432 109.317zm.332-48.364c33.515 0 60.685-27.141 60.685-60.621 0-33.48-27.17-60.621-60.685-60.621s-60.685 27.141-60.685 60.621c0 33.48 27.17 60.621 60.685 60.621z" id="Oval-149" fill="#fff"/><path d="M166.578 88.298c16.636-2.336 33.629-5.27 48.381-8.027 2.545 9.249 3.905 18.989 3.905 29.046 0 10.062-1.361 19.806-3.908 29.059-14.689-2.743-31.596-5.662-48.149-7.993 2.357-6.469 3.642-13.451 3.642-20.734 0-7.515-1.369-14.71-3.871-21.351zm-113.299-.855c-17.153-2.33-34.359-5.112-49.229-7.692-2.639 9.404-4.05 19.321-4.05 29.567 0 10.242 1.41 20.154 4.046 29.555 14.794-2.57 31.905-5.338 48.983-7.661-2.553-6.7-3.951-13.968-3.951-21.563 0-7.838 1.489-15.329 4.2-22.205zM87.121 165.909c-2.315 16.948-5.062 33.911-7.61 48.588 9.51 2.694 19.547 4.136 29.921 4.136 10.14 0 19.958-1.378 29.277-3.956-2.534-14.571-5.266-31.415-7.575-48.274-6.647 2.499-13.849 3.866-21.37 3.866-8.004 0-15.646-1.548-22.642-4.36zm1.115-112.957c-2.334-16.802-5.297-34.029-8.089-48.994 9.321-2.58 19.141-3.958 29.284-3.958 9.919 0 19.53 1.318 28.666 3.789-2.774 14.874-5.722 31.994-8.056 48.705-6.341-2.245-13.167-3.467-20.278-3.467-7.581 0-14.837 1.389-21.527 3.925z" id="Oval-149" fill="#49B9E8"/><use stroke="#373D44" mask="url(#i)" stroke-width="8" xlink:href="#b" fill="none"/></g><use stroke="#373D44" mask="url(#j)" stroke-width="8" fill="#fff" xlink:href="#c"/><use stroke="#373D44" mask="url(#k)" stroke-width="8" fill="#fff" xlink:href="#d"/><use stroke="#373D44" mask="url(#l)" stroke-width="8" fill="#fff" xlink:href="#e"/><use stroke="#373D44" mask="url(#m)" stroke-width="8" fill="#fff" xlink:href="#f"/></g></svg>
